X: 12014
T: Equinox, The
R: reel
M: 4/4
K: Dmajor
A2 AB AFEF|D2 DE FABd|e2 ef gfed|cdef g2 BB|
A2 AB AFEF|D2 DE FABd|e2 ef gfed|1 cABc d2BB:|2 cABc d2e2||
aebe aebe|aebe agfe|~g3a gfed|efed cBAe|
aebe aebe|aebe agfe|~g3a gfed|cABc d2e2|
aebe aebe|aebe agfe|~g3a gfed|efed cdcB|
A2 AB AFEF|D2 DE FABd|e2 ef gfed|cABc d2BB||

